X:87
T:Hornpipe
O:No 87 Wm Clarke of Feltwell MS  1858
N:see # 115 Malthouse hp (in D)
I:abc2nwc
M:2/2
L:1/8
K:C
ef|gefd cedc|BcBA GAGF|EGce fedc|B2G2G2ef|
gefd cedc|BcdB GAGF|EGce fdcB|c2c2c2:|
|:Bc|dGGG dGeG|dGGG dGeG|fedc dcBc|A2A3/2A/2 A2GF|
EG c2AF d2|BGAB cdef|geaf egdB|c2c2c2:|

